src/categories-icons-sprite/categories/svg-cat-sport.svg

<svg width="40" height="41" viewBox="0 0 40 41" fill="none" xmlns="http://www.w3.org/2000/svg">
<path class="p-FF620B" d="M0 0V18.923H28.3063V0H0Z" fill="#5FBEFF"/>
<path class="p-DD3400" d="M14.1533 0H28.3066V18.923H14.1533V0Z" fill="#4D98CB"/>
<path class="p-DEECF1" d="M2.3457 2.3457V16.5769H25.9602V2.3457H2.3457Z" fill="#B9DFFC"/>
<path class="p-C6E2E7" d="M14.1533 2.3457H25.9606V16.5769H14.1533V2.3457Z" fill="#A1D1FD"/>
<path class="p-B4EAF5" d="M12.8076 22.4414H15.4994V38.8622H12.8076V22.4414Z" fill="#5FBEFF"/>
<path class="p-00ADEA" d="M14.1533 22.4414H15.4994V38.8622H14.1533V22.4414Z" fill="#4D98CB"/>
<path class="p-FF620B" d="M32.8036 40.0047C34.1875 39.8406 35.5247 39.3245 36.721 38.4331C37.0261 38.1986 34.9851 35.6416 35.2667 35.3365C35.5715 35.0549 38.1285 37.0959 38.3629 36.7911C39.2544 35.6181 39.7708 34.2812 39.9346 32.8969C39.9817 32.4747 37.6592 32.0525 37.6592 31.6303C37.6592 31.2314 39.9582 30.8327 39.8878 30.4341C39.6063 28.8389 38.8558 27.314 37.6124 26.0942C36.3926 24.8509 34.8442 24.1003 33.249 23.8188C32.8971 23.7485 32.522 26.071 32.1466 26.0474C31.7241 26.0474 31.2787 23.7249 30.8565 23.7717C29.449 23.9359 28.1118 24.4522 26.9155 25.3437C26.6104 25.5782 28.6514 28.1351 28.3698 28.4399C28.0882 28.7215 25.508 26.6806 25.2732 27.0089C24.4289 28.1584 23.9364 29.5191 23.7722 30.9266C23.7251 31.3488 26.0473 31.771 26.0473 32.1932C26.0708 32.5686 23.7487 32.9675 23.819 33.3426C24.1005 34.9614 24.8275 36.4863 26.0241 37.6822C27.2439 38.9256 28.792 39.6764 30.3872 39.958C30.8329 40.0515 31.3022 37.7293 31.7712 37.7293C32.1233 37.7293 32.4517 40.0047 32.8036 40.0047Z" fill="#65B3E7"/>
<path class="p-DD3400" d="M38.3627 36.7911C39.2538 35.6181 39.7702 34.2809 39.9341 32.8969C39.9811 32.4747 37.6589 32.0525 37.6589 31.6303C37.6589 31.2314 39.9576 30.8324 39.8873 30.4338C39.6057 28.8386 38.8552 27.314 37.6119 26.0942C36.3921 24.8509 34.8436 24.1 33.2487 23.8188C32.8966 23.7485 32.5214 26.0707 32.146 26.0471C31.7238 26.0471 31.2781 23.7249 30.8559 23.7717C29.4484 23.9359 28.1112 24.4519 26.915 25.3434C26.6099 25.5778 28.6508 28.1348 28.3693 28.4399L35.2661 35.3365C35.5709 35.0549 38.1282 37.0959 38.3627 36.7911Z" fill="#4D98CB"/>
<path class="p-68544F" d="M6.28809 37.6895H20.0171V40.0352H6.28809V37.6895Z" fill="#5FBEFF"/>
<path class="p-FF9F00" d="M32.8038 40.005C32.3816 38.4098 32.6397 36.6975 33.5779 35.29L36.7212 38.4333C37.0263 38.1989 37.3311 37.9876 37.6127 37.6825C37.9178 37.4013 38.129 37.0962 38.3635 36.7914L35.2202 33.648C36.6274 32.733 38.3164 32.475 39.9349 32.8972C40.029 32.0764 40.029 31.2552 39.8881 30.4341C37.683 30.0586 35.3608 30.5982 33.5308 31.959L31.7247 30.1525C32.8038 28.6982 33.3902 26.9856 33.3902 25.2498C33.3902 24.7805 33.3431 24.288 33.2496 23.8187C32.4516 23.6781 31.6543 23.6781 30.8567 23.772C31.2789 25.3672 30.9974 27.0795 30.0591 28.487L26.9158 25.3436C26.6107 25.5781 26.3059 25.7894 26.0243 26.0945C25.7428 26.3757 25.5083 26.6808 25.2735 27.0092L28.4171 30.1525C27.0329 31.044 25.3441 31.3255 23.7725 30.9269C23.6786 31.7242 23.6786 32.5453 23.8192 33.3429C25.9776 33.6948 28.253 33.1788 30.0827 31.818L31.8888 33.6245C30.5284 35.4777 29.9888 37.7767 30.3878 39.9579C31.1851 40.0989 31.983 40.0989 32.8038 40.005Z" fill="#A1D1FD"/>
<path class="p-FF620B" d="M37.6118 37.6825C37.9169 37.4013 38.1281 37.0962 38.3626 36.7914L35.2193 33.648C36.6265 32.733 38.3155 32.475 39.934 32.8972C40.0281 32.0764 40.0281 31.2552 39.8872 30.4341C37.6821 30.0586 35.3599 30.5982 33.5299 31.959L31.7238 30.1525C32.8029 28.6982 33.3893 26.9856 33.3893 25.2498C33.3893 24.7805 33.3422 24.288 33.2487 23.8187C32.4507 23.6781 31.6534 23.6781 30.8558 23.772C31.278 25.3672 30.9965 27.0795 30.0582 28.487L26.9149 25.3436C26.6098 25.5781 26.305 25.7894 26.0234 26.0945L37.6118 37.6825Z" fill="#58ADE5"/>
<path class="p-53433F" d="M14.1533 37.6895H22.0178V40.0352H14.1533V37.6895Z" fill="#4D98CB"/>
<path class="p-A8D3D8" d="M19.8676 8.1792L19.2345 11.8857H15.3257V8.36691H12.9799V11.8857H9.07107L8.43763 8.1792L7.13867 8.55431L9.64888 23.6146H18.6567L21.1666 8.55461L19.8676 8.1792ZM12.9799 21.2689H10.6192L10.2438 18.9232H12.9799V21.2689ZM12.9799 16.5771H9.84513L9.44648 14.2314H12.9799V16.5771ZM17.6861 21.2689H15.3257V18.9232H18.0615L17.6861 21.2689ZM18.4601 16.5771H15.3257V14.2314H18.8591L18.4601 16.5771Z" fill="#58ADE5"/>
<path class="p-8EBAC5" d="M19.8683 8.1792L19.2352 11.8857H15.3263V8.36691H14.1533V23.6146H18.6574L21.1673 8.55461L19.8683 8.1792ZM17.6868 21.2689H15.3263V18.9232H18.0622L17.6868 21.2689ZM18.4608 16.5771H15.3263V14.2314H18.8598L18.4608 16.5771Z" fill="#4D98CB"/>
<path class="p-FF620B" d="M4.76953 8.19385H23.6143V9.53989H4.76953V8.19385Z" fill="#5FBEFF"/>
<path class="p-DD3400" d="M14.1533 8.19385H23.6148V9.53989H14.1533V8.19385Z" fill="#65B3E7"/>
</svg>

<svg width="40" height="41" fill="none" xmlns="http://www.w3.org/2000/svg"><path class="p-FF620B" d="M0 0v18.923h28.306V0H0z" fill="#5FBEFF"/><path class="p-DD3400" d="M14.153 0h14.154v18.923H14.153V0z" fill="#4D98CB"/><path class="p-DEECF1" d="M2.346 2.346v14.23H25.96V2.347H2.346z" fill="#B9DFFC"/><path class="p-C6E2E7" d="M14.153 2.346h11.808v14.23H14.153V2.347z" fill="#A1D1FD"/><path class="p-B4EAF5" d="M12.808 22.441h2.691v16.421h-2.691v-16.42z" fill="#5FBEFF"/><path class="p-00ADEA" d="M14.153 22.441H15.5v16.421h-1.346v-16.42z" fill="#4D98CB"/><path class="p-FF620B" d="M32.804 40.005a8.11 8.11 0 003.917-1.572c.305-.234-1.736-2.791-1.454-3.096.304-.282 2.861 1.759 3.096 1.454a7.937 7.937 0 001.572-3.894c.047-.422-2.276-.844-2.276-1.267 0-.399 2.3-.797 2.229-1.196a7.99 7.99 0 00-2.276-4.34 8.055 8.055 0 00-4.363-2.275c-.352-.07-.727 2.252-1.102 2.228-.423 0-.868-2.322-1.29-2.275a8.101 8.101 0 00-3.941 1.572c-.306.234 1.735 2.791 1.454 3.096-.282.281-2.862-1.76-3.097-1.431-.844 1.15-1.337 2.51-1.5 3.918-.048.422 2.274.844 2.274 1.266.024.376-2.298.775-2.228 1.15.282 1.618 1.009 3.143 2.205 4.34a8.055 8.055 0 004.363 2.275c.446.093.915-2.229 1.384-2.229.352 0 .68 2.276 1.033 2.276z" fill="#65B3E7"/><path class="p-DD3400" d="M38.363 36.791a7.943 7.943 0 001.571-3.894c.047-.422-2.275-.844-2.275-1.267 0-.399 2.299-.798 2.228-1.196a7.99 7.99 0 00-2.275-4.34 8.053 8.053 0 00-4.363-2.275c-.352-.07-.728 2.252-1.103 2.228-.422 0-.868-2.322-1.29-2.275a8.1 8.1 0 00-3.941 1.571c-.305.235 1.736 2.792 1.454 3.097l6.897 6.896c.305-.281 2.862 1.76 3.097 1.455z" fill="#4D98CB"/><path class="p-68544F" d="M6.288 37.69h13.73v2.345H6.287V37.69z" fill="#5FBEFF"/><path class="p-FF9F00" d="M32.804 40.005a5.8 5.8 0 01.774-4.715l3.143 3.143c.305-.234.61-.445.892-.75.305-.282.516-.587.75-.892l-3.143-3.143a5.866 5.866 0 014.715-.75 8.654 8.654 0 00-.047-2.464 8.355 8.355 0 00-6.357 1.525l-1.806-1.806c1.079-1.455 1.665-3.167 1.665-4.903 0-.47-.047-.962-.14-1.431a8.188 8.188 0 00-2.393-.047 5.81 5.81 0 01-.798 4.715l-3.143-3.143c-.305.234-.61.445-.892.75a7.08 7.08 0 00-.75.915l3.143 3.143a5.915 5.915 0 01-4.645.775 8.346 8.346 0 00.047 2.416 8.278 8.278 0 006.264-1.525l1.806 1.806c-1.36 1.854-1.9 4.153-1.501 6.334.797.14 1.595.14 2.416.047z" fill="#A1D1FD"/><path class="p-FF620B" d="M37.612 37.682c.305-.28.516-.586.75-.89l-3.143-3.144a5.866 5.866 0 014.715-.75 8.654 8.654 0 00-.047-2.464 8.355 8.355 0 00-6.357 1.525l-1.806-1.806c1.079-1.455 1.665-3.167 1.665-4.903 0-.47-.047-.962-.14-1.431a8.188 8.188 0 00-2.393-.047 5.81 5.81 0 01-.798 4.715l-3.143-3.143c-.305.234-.61.445-.892.75l11.589 11.588z" fill="#58ADE5"/><path class="p-53433F" d="M14.153 37.69h7.865v2.345h-7.865V37.69z" fill="#4D98CB"/><path class="p-A8D3D8" d="M19.868 8.18l-.633 3.706h-3.91v-3.52H12.98v3.52H9.07l-.633-3.707-1.3.375 2.51 15.06h9.009l2.51-15.06-1.3-.375zM12.98 21.268h-2.36l-.376-2.346h2.736v2.346zm0-4.692H9.845l-.399-2.346h3.534v2.346zm4.706 4.692h-2.36v-2.346h2.735l-.375 2.346zm.774-4.692h-3.134v-2.346h3.533l-.399 2.346z" fill="#58ADE5"/><path class="p-8EBAC5" d="M19.868 8.18l-.633 3.706h-3.909v-3.52h-1.173v15.249h4.504l2.51-15.06-1.299-.376zm-2.181 13.089h-2.36v-2.346h2.735l-.375 2.346zm.774-4.692h-3.135v-2.346h3.534l-.4 2.346z" fill="#4D98CB"/><path class="p-FF620B" d="M4.77 8.194h18.844V9.54H4.77V8.194z" fill="#5FBEFF"/><path class="p-DD3400" d="M14.153 8.194h9.462V9.54h-9.462V8.194z" fill="#65B3E7"/></svg>
